assets/emojis/FacewithOpenMouth.svg

<svg width="137" height="126" viewBox="0 0 137 126" fill="none" xmlns="http://www.w3.org/2000/svg">
<circle cx="67.4414" cy="62.77" r="62.3496" fill="#F9B42F"/>
<path opacity="0.3" fill-rule="evenodd" clip-rule="evenodd" d="M118.38 98.9414C107.058 110.533 91.2562 117.728 73.7734 117.728C39.3386 117.728 11.4238 89.8133 11.4238 55.3786C11.4238 41.9829 15.6482 29.5739 22.8376 19.4111C11.8599 30.6503 5.09473 46.022 5.09473 62.9739C5.09473 97.4086 33.0096 125.324 67.4443 125.324C88.4834 125.324 107.089 114.903 118.38 98.9414Z" fill="#BC8417"/>
<path d="M42.815 62.3449C45.47 62.3449 47.6222 60.1926 47.6222 57.5377C47.6222 54.8827 45.47 52.7305 42.815 52.7305C40.1601 52.7305 38.0078 54.8827 38.0078 57.5377C38.0078 60.1926 40.1601 62.3449 42.815 62.3449Z" fill="#0A0F1A"/>
<path d="M93.0718 62.3444C95.7268 62.3444 97.879 60.1921 97.879 57.5372C97.879 54.8822 95.7268 52.73 93.0718 52.73C90.4169 52.73 88.2646 54.8822 88.2646 57.5372C88.2646 60.1921 90.4169 62.3444 93.0718 62.3444Z" fill="#0A0F1A"/>
<path d="M67.9088 87.1404C71.0552 87.1404 73.6057 84.5898 73.6057 81.4435C73.6057 78.2972 71.0552 75.7466 67.9088 75.7466C64.7625 75.7466 62.2119 78.2972 62.2119 81.4435C62.2119 84.5898 64.7625 87.1404 67.9088 87.1404Z" fill="#0A0F1A"/>
<path d="M103.658 25.3615C95.7399 25.3748 88.0987 28.279 82.1691 33.529C76.2394 38.779 72.4289 46.0137 71.453 53.8751C70.0131 53.7283 68.5657 53.6693 67.1186 53.6986C66.38 53.6579 65.6397 53.6579 64.9011 53.6986C63.8724 45.3416 59.649 37.7078 53.1166 32.3984C46.5843 27.0891 38.2506 24.5168 29.8638 25.2212C21.4769 25.9255 13.6885 29.8517 8.13235 36.1763C2.57615 42.5008 -0.316111 50.7322 0.0622419 59.1439C0.440595 67.5555 4.06017 75.4938 10.1617 81.2935C16.2632 87.0932 24.3726 90.3037 32.7888 90.2516C41.205 90.1994 49.2741 86.8887 55.3033 81.0139C61.3326 75.139 64.8537 67.1565 65.1279 58.7408C65.7909 58.7012 66.4556 58.7012 67.1186 58.7408C68.4902 58.7144 69.862 58.7733 71.2262 58.9173C71.439 65.2902 73.5225 71.4594 77.2169 76.6553C80.9113 81.8513 86.0531 85.8441 92.0008 88.1356C97.9486 90.4272 104.439 90.9161 110.663 89.5413C116.886 88.1666 122.568 84.9891 126.998 80.4051C131.429 75.8212 134.412 70.0337 135.576 63.7645C136.74 57.4953 136.034 51.022 133.545 45.1519C131.056 39.2818 126.894 34.2748 121.579 30.7554C116.265 27.2361 110.032 25.3601 103.658 25.3615ZM32.696 85.3132C27.2684 85.3132 21.9627 83.703 17.4498 80.6862C12.9369 77.6695 9.41954 73.3816 7.34249 68.3649C5.26544 63.3482 4.72199 57.828 5.78086 52.5023C6.83973 47.1766 9.45337 42.2846 13.2913 38.445C17.1291 34.6054 22.0189 31.9906 27.3422 30.9312C32.6655 29.8719 38.1833 30.4156 43.1977 32.4935C48.2121 34.5715 52.4981 38.0905 55.5135 42.6054C58.5289 47.1203 60.1383 52.4284 60.1383 57.8584C60.125 65.1358 57.2295 72.1113 52.0859 77.2572C46.9424 82.403 39.97 85.2999 32.696 85.3132ZM103.658 85.3132C98.2337 85.2983 92.9355 83.6754 88.4326 80.6495C83.9296 77.6237 80.4241 73.3306 78.3586 68.3126C76.2931 63.2946 75.7605 57.7768 76.8279 52.4561C77.8952 47.1354 80.5148 42.2505 84.3557 38.4184C88.1966 34.5864 93.0865 31.979 98.4077 30.9258C103.729 29.8726 109.243 30.4207 114.253 32.5009C119.263 34.581 123.544 38.1 126.556 42.6133C129.568 47.1265 131.176 52.4316 131.176 57.8584C131.173 61.4693 130.458 65.0441 129.073 68.3785C127.688 71.7129 125.66 74.7415 123.104 77.2913C120.549 79.841 117.516 81.8619 114.179 83.2383C110.842 84.6148 107.267 85.3198 103.658 85.3132Z" fill="#0A0F1A"/>
</svg>

<svg xmlns="http://www.w3.org/2000/svg" width="137" height="126" fill="none" viewBox="0 0 137 126"><circle cx="67.441" cy="62.77" r="62.35" fill="#f9b42f"/><path fill="#bc8417" fill-rule="evenodd" d="M118.38 98.941c-11.322 11.592-27.124 18.787-44.607 18.787-34.434 0-62.35-27.915-62.35-62.35 0-13.395 4.225-25.804 11.415-35.967C11.86 30.651 5.095 46.022 5.095 62.974c0 34.435 27.915 62.35 62.35 62.35 21.038 0 39.644-10.421 50.935-26.383" clip-rule="evenodd" opacity=".3"/><path fill="#0a0f1a" d="M42.815 62.345a4.807 4.807 0 1 0 0-9.614 4.807 4.807 0 0 0 0 9.614m50.257-.001a4.807 4.807 0 1 0 0-9.614 4.807 4.807 0 0 0 0 9.614M67.909 87.14a5.697 5.697 0 1 0 0-11.393 5.697 5.697 0 0 0 0 11.393"/><path fill="#0a0f1a" d="M103.658 25.362a32.5 32.5 0 0 0-21.489 8.167 32.53 32.53 0 0 0-10.716 20.346 36 36 0 0 0-4.334-.176q-1.11-.061-2.218 0a32.58 32.58 0 0 0-11.784-21.3 32.55 32.55 0 0 0-44.985 3.777 32.58 32.58 0 0 0 2.03 45.117 32.55 32.55 0 0 0 45.141-.28 32.58 32.58 0 0 0 9.825-22.272q.996-.06 1.99 0a33 33 0 0 1 4.108.176 32.5 32.5 0 0 0 5.99 17.738 32.443 32.443 0 0 0 49.781 3.75 32.49 32.49 0 0 0 6.547-35.253 32.47 32.47 0 0 0-11.965-14.397 32.44 32.44 0 0 0-17.921-5.393M32.696 85.313a27.43 27.43 0 0 1-15.246-4.627 27.466 27.466 0 0 1-4.158-42.241 27.44 27.44 0 0 1 29.906-5.951 27.45 27.45 0 0 1 12.316 10.111 27.46 27.46 0 0 1 4.624 15.253 27.5 27.5 0 0 1-8.052 19.4 27.5 27.5 0 0 1-19.39 8.055m70.962 0a27.43 27.43 0 0 1-15.225-4.663 27.466 27.466 0 0 1-4.077-42.231 27.44 27.44 0 0 1 29.897-5.918 27.44 27.44 0 0 1 12.303 10.112 27.46 27.46 0 0 1 4.62 15.245 27.485 27.485 0 0 1-16.997 25.38 27.5 27.5 0 0 1-10.521 2.075"/></svg>
